_inc/logos/xboxseries-w.svg

<?xml version="1.0" encoding="UTF-8" standalone="no"?>
<!-- Generator: Adobe Illustrator 24.2.3, SVG Export Plug-In . SVG Version: 6.00 Build 0)  -->

<svg
   version="1.1"
   id="Layer_1"
   x="0px"
   y="0px"
   viewBox="0 0 110 54"
   style="enable-background:new 0 0 110 54;"
   xml:space="preserve"
   sodipodi:docname="xboxseries-w.svg"
   inkscape:version="1.2.2 (732a01da63, 2022-12-09)"
   xmlns:inkscape="http://www.inkscape.org/namespaces/inkscape"
   xmlns:sodipodi="http://sodipodi.sourceforge.net/DTD/sodipodi-0.dtd"
   xmlns="http://www.w3.org/2000/svg"
   xmlns:svg="http://www.w3.org/2000/svg"><defs
   id="defs7" /><sodipodi:namedview
   id="namedview5"
   pagecolor="#ffffff"
   bordercolor="#000000"
   borderopacity="0.25"
   inkscape:showpageshadow="2"
   inkscape:pageopacity="0.0"
   inkscape:pagecheckerboard="0"
   inkscape:deskcolor="#d1d1d1"
   showgrid="false"
   inkscape:zoom="11.345455"
   inkscape:cx="55.044071"
   inkscape:cy="26.971154"
   inkscape:window-width="3440"
   inkscape:window-height="1369"
   inkscape:window-x="-8"
   inkscape:window-y="-8"
   inkscape:window-maximized="1"
   inkscape:current-layer="Layer_1" />
<path
   d="M79.7,28.2l4.2-5.8c-1.4-0.3-2.7-0.9-3.9-1.7c-1.2-0.9-1.8-2.3-1.7-3.8c-0.1-1.5,0.7-2.9,1.9-3.7c1.6-1,3.5-1.4,5.4-1.3l0,0  c7.4,0,9.3,3.9,10.6,5.5l4-5.5c-0.7-1.1-1.5-2.1-2.5-2.9C95,6.9,90.9,5.8,85.5,5.8c-4.7,0-8.4,1-11.1,3.1c-2.6,2-4.1,5.1-4,8.4  C70.4,22.8,73.5,26.3,79.7,28.2z M100.1,27.9c-1.9-1.7-4.7-2.9-8.6-3.9l-4.3,5.9c2.2,0.4,4.3,1.3,6.2,2.6c1.2,0.8,1.9,2.2,1.8,3.7  c0.1,1.7-0.7,3.4-2.1,4.4c-1.8,1.1-4,1.7-6.1,1.5l0,0c-6.2,0-9.1-2-12-7.4l0,0l-4.3,5.8c0.8,1.6,1.9,2.9,3.2,4  c3,2.5,7.3,3.7,12.8,3.7c5.2,0,9.2-1.1,12.1-3.3c2.9-2.2,4.5-5.6,4.3-9.2C103.5,32.8,102.3,29.9,100.1,27.9L100.1,27.9z M63.5,47.3  h-1.8V6.7h1.8L63.5,47.3z M11.4,6.5c0.6,0,1.1,0.2,1.5,0.7c0.7,1.3,0.7,2.8-0.1,4c-0.4,0.5-1.1,0.8-1.7,0.7h0v-1.2h0  c0.4,0,0.8-0.1,1-0.4c0.2-0.4,0.3-0.8,0.3-1.2c0-0.3-0.1-0.7-0.2-1c-0.2-0.2-0.4-0.4-0.7-0.3c-0.2,0-0.5,0.1-0.6,0.3  c-0.2,0.3-0.3,0.7-0.4,1.1l-0.1,0.6c-0.1,0.6-0.3,1.1-0.7,1.6c-0.3,0.4-0.8,0.5-1.3,0.5c-0.5,0-1-0.2-1.4-0.6  C6.7,10.6,6.5,10,6.5,9.3c0-0.7,0.1-1.4,0.6-2c0.4-0.5,1-0.7,1.6-0.7h0v1.2h0C8.3,7.9,8,8,7.8,8.3C7.6,8.6,7.5,9,7.6,9.3  c0,0.3,0.1,0.6,0.2,0.9c0.1,0.2,0.4,0.3,0.6,0.3c0.2,0,0.5-0.1,0.6-0.3c0.2-0.3,0.3-0.6,0.4-1l0.1-0.6C9.5,8,9.8,7.5,10.1,7  C10.5,6.6,10.9,6.4,11.4,6.5L11.4,6.5z M10.1,42.4c-0.4,0.5-0.6,1.1-0.7,1.7l-0.1,0.6c-0.1,0.4-0.2,0.7-0.4,1  c-0.1,0.2-0.4,0.3-0.6,0.3c-0.2,0-0.5-0.1-0.6-0.3c-0.2-0.3-0.2-0.6-0.2-0.9c0-0.4,0.1-0.8,0.3-1.1c0.2-0.2,0.5-0.4,0.8-0.4h0v-1.2  h0c-0.6,0-1.2,0.3-1.6,0.7c-0.4,0.6-0.6,1.3-0.6,2c0,0.6,0.1,1.3,0.5,1.8c0.3,0.4,0.8,0.7,1.4,0.6c0.5,0,1-0.2,1.3-0.5  c0.4-0.5,0.6-1,0.7-1.6l0.1-0.6c0.1-0.4,0.2-0.7,0.4-1.1c0.1-0.2,0.4-0.3,0.6-0.3c0.3,0,0.5,0.1,0.7,0.3c0.2,0.3,0.3,0.6,0.2,1  c0,0.4-0.1,0.8-0.3,1.2c-0.2,0.3-0.6,0.4-1,0.4h0v1.2h0c0.7,0,1.3-0.2,1.7-0.7c0.8-1.2,0.8-2.8,0.1-4c-0.4-0.5-0.9-0.7-1.5-0.7  C10.9,41.8,10.4,42,10.1,42.4L10.1,42.4z M13.3,26.3v1.3l0,0c-0.2,0.1-0.5,0.2-0.8,0.2l-0.7,0c-0.3,0-0.6,0.1-0.8,0.3  c-0.2,0.2-0.3,0.5-0.2,0.8v1.6h2.6v1.3H6.7v-3c0-0.1,0-0.3,0-0.4c0,0,0,0.1,0,0.1c0-0.4,0.1-0.9,0.4-1.3L7,27.3  c0-0.1,0.1-0.2,0.2-0.2c0.3-0.4,0.8-0.6,1.4-0.6c0.7,0,1.4,0.4,1.6,1.1c0.1-0.3,0.3-0.5,0.5-0.7c0.3-0.2,0.6-0.2,0.9-0.2l1-0.1  C12.8,26.5,13,26.5,13.3,26.3L13.3,26.3z M8.7,27.8c-0.3,0-0.5,0.1-0.7,0.3c-0.2,0.2-0.3,0.5-0.2,0.8v1.6h2v-1.7  c0-0.3-0.1-0.6-0.3-0.8C9.2,27.8,9,27.7,8.7,27.8L8.7,27.8z M6.7,23.7h6.6v-1.3H6.7V23.7z M7.8,14.5H6.7v4.9h6.6v-4.9h-1.1v3.6h-1.7  v-3.3H9.4v3.3H7.8L7.8,14.5z M7.8,34.5H6.7v4.9h6.6v-4.9h-1.1v3.6h-1.7v-3.3H9.4v3.3H7.8L7.8,34.5z M16.1,47.3h8.8l6.6-9.1l-4.4-6  L16.1,47.3z M54.5,6.7h-8.8l-5.4,7.5l4.4,6L54.5,6.7z M26.1,6.7h-8.8L47,47.3h8.8L26.1,6.7z"
   id="path2"
   style="fill:#ffffff" />
</svg>

<?xml version="1.0" encoding="UTF-8" standalone="no"?>
<!-- Generator: Adobe Illustrator 24.2.3, SVG Export Plug-In . SVG Version: 6.00 Build 0)  -->

<svg
   version="1.1"
   id="Layer_1"
   x="0px"
   y="0px"
   viewBox="0 0 110 54"
   style="enable-background:new 0 0 110 54;"
   xml:space="preserve"
   sodipodi:docname="xboxseries-w.svg"
   inkscape:version="1.4 (86a8ad7, 2024-10-11)"
   xmlns:inkscape="http://www.inkscape.org/namespaces/inkscape"
   xmlns:sodipodi="http://sodipodi.sourceforge.net/DTD/sodipodi-0.dtd"
   xmlns="http://www.w3.org/2000/svg"
   xmlns:svg="http://www.w3.org/2000/svg"><defs
   id="defs1" /><sodipodi:namedview
   id="namedview1"
   pagecolor="#ffffff"
   bordercolor="#000000"
   borderopacity="0.25"
   inkscape:showpageshadow="2"
   inkscape:pageopacity="0.0"
   inkscape:pagecheckerboard="true"
   inkscape:deskcolor="#d1d1d1"
   inkscape:zoom="16.690909"
   inkscape:cx="57.93573"
   inkscape:cy="28.069172"
   inkscape:window-width="3840"
   inkscape:window-height="2066"
   inkscape:window-x="-11"
   inkscape:window-y="-11"
   inkscape:window-maximized="1"
   inkscape:current-layer="Layer_1" />
<path
   d="m 79.7,28.2 4.2,-5.8 C 82.5,22.1 81.2,21.5 80,20.7 78.8,19.8 78.2,18.4 78.3,16.9 78.2,15.4 79,14 80.2,13.2 c 1.6,-1 3.5,-1.4 5.4,-1.3 v 0 c 7.4,0 9.3,3.9 10.6,5.5 l 4,-5.5 C 99.5,10.8 98.7,9.8 97.7,9 95,6.9 90.9,5.8 85.5,5.8 c -4.7,0 -8.4,1 -11.1,3.1 -2.6,2 -4.1,5.1 -4,8.4 0,5.5 3.1,9 9.3,10.9 z m 20.4,-0.3 C 98.2,26.2 95.4,25 91.5,24 l -4.3,5.9 c 2.2,0.4 4.3,1.3 6.2,2.6 1.2,0.8 1.9,2.2 1.8,3.7 0.1,1.7 -0.7,3.4 -2.1,4.4 -1.8,1.1 -4,1.7 -6.1,1.5 v 0 c -6.2,0 -9.1,-2 -12,-7.4 v 0 l -4.3,5.8 c 0.8,1.6 1.9,2.9 3.2,4 3,2.5 7.3,3.7 12.8,3.7 5.2,0 9.2,-1.1 12.1,-3.3 2.9,-2.2 4.29286,-5.578818 4.4,-9.2 -0.0448,-2.931774 -0.9,-5.8 -3.1,-7.8 z M 63.5,47.3 H 61.7 V 6.7 h 1.8 z M 11.4,6.5 c 0.6,0 1.1,0.2 1.5,0.7 0.7,1.3 0.7,2.8 -0.1,4 -0.4,0.5 -1.1,0.8 -1.7,0.7 v 0 -1.2 0 c 0.4,0 0.8,-0.1 1,-0.4 0.2,-0.4 0.3,-0.8 0.3,-1.2 0,-0.3 -0.1,-0.7 -0.2,-1 C 12,7.9 11.8,7.7 11.5,7.8 11.3,7.8 11,7.9 10.9,8.1 10.7,8.4 10.6,8.8 10.5,9.2 L 10.4,9.8 C 10.3,10.4 10.1,10.9 9.7,11.4 9.4,11.8 8.9,11.9 8.4,11.9 7.9,11.9 7.4,11.7 7,11.3 6.7,10.6 6.5,10 6.5,9.3 6.5,8.6 6.6,7.9 7.1,7.3 7.5,6.8 8.1,6.6 8.7,6.6 v 0 1.2 0 C 8.3,7.9 8,8 7.8,8.3 7.6,8.6 7.5,9 7.6,9.3 c 0,0.3 0.1,0.6 0.2,0.9 0.1,0.2 0.4,0.3 0.6,0.3 0.2,0 0.5,-0.1 0.6,-0.3 0.2,-0.3 0.3,-0.6 0.4,-1 L 9.5,8.6 C 9.5,8 9.8,7.5 10.1,7 10.5,6.6 10.9,6.4 11.4,6.5 Z M 10.1,42.4 C 9.7,42.9 9.5,43.5 9.4,44.1 L 9.3,44.7 C 9.2,45.1 9.1,45.4 8.9,45.7 8.8,45.9 8.5,46 8.3,46 8.1,46 7.8,45.9 7.7,45.7 7.5,45.4 7.5,45.1 7.5,44.8 7.5,44.4 7.6,44 7.8,43.7 8,43.5 8.3,43.3 8.6,43.3 v 0 -1.2 0 c -0.6,0 -1.2,0.3 -1.6,0.7 -0.4,0.6 -0.6,1.3 -0.6,2 0,0.6 0.1,1.3 0.5,1.8 0.3,0.4 0.8,0.7 1.4,0.6 0.5,0 1,-0.2 1.3,-0.5 0.4,-0.5 0.6,-1 0.7,-1.6 l 0.1,-0.6 c 0.1,-0.4 0.2,-0.7 0.4,-1.1 0.1,-0.2 0.4,-0.3 0.6,-0.3 0.3,0 0.5,0.1 0.7,0.3 0.2,0.3 0.3,0.6 0.2,1 0,0.4 -0.1,0.8 -0.3,1.2 -0.2,0.3 -0.6,0.4 -1,0.4 v 0 1.2 0 c 0.7,0 1.3,-0.2 1.7,-0.7 0.8,-1.2 0.8,-2.8 0.1,-4 -0.4,-0.5 -0.9,-0.7 -1.5,-0.7 -0.4,0 -0.9,0.2 -1.2,0.6 z m 3.2,-16.1 v 1.3 0 c -0.2,0.1 -0.5,0.2 -0.8,0.2 h -0.7 c -0.3,0 -0.6,0.1 -0.8,0.3 -0.2,0.2 -0.3,0.5 -0.2,0.8 v 1.6 h 2.6 v 1.3 H 6.7 v -3 -0.4 0.1 c 0,-0.4 0.1,-0.9 0.4,-1.3 L 7,27.3 c 0,-0.1 0.1,-0.2 0.2,-0.2 0.3,-0.4 0.8,-0.6 1.4,-0.6 0.7,0 1.4,0.4 1.6,1.1 0.1,-0.3 0.3,-0.5 0.5,-0.7 0.3,-0.2 0.6,-0.2 0.9,-0.2 l 1,-0.1 c 0.2,-0.1 0.4,-0.1 0.7,-0.3 z m -4.6,1.5 c -0.3,0 -0.5,0.1 -0.7,0.3 -0.2,0.2 -0.3,0.5 -0.2,0.8 v 1.6 h 2 V 28.8 C 9.8,28.5 9.7,28.2 9.5,28 9.2,27.8 9,27.7 8.7,27.8 Z m -2,-4.1 h 6.6 V 22.4 H 6.7 Z M 7.8,14.5 H 6.7 v 4.9 h 6.6 v -4.9 h -1.1 v 3.6 H 10.5 V 14.8 H 9.4 v 3.3 H 7.8 Z m 0,20 H 6.7 v 4.9 h 6.6 v -4.9 h -1.1 v 3.6 H 10.5 V 34.8 H 9.4 v 3.3 H 7.8 Z m 8.3,12.8 h 8.8 l 6.6,-9.1 -4.4,-6 z M 54.5,6.7 h -8.8 l -5.4,7.5 4.4,6 z m -28.4,0 H 17.3 L 47,47.3 h 8.8 z"
   id="path1"
   sodipodi:nodetypes="cccccsscccscccccccccssscccssccccccccccsccscsccccscscscsccssccsccccccsccscscsccscscccscsscccsccsccscccsssscccccccccccsccccccscccscccccccccccccccccccccccccccccccccccccccccccccccc"
   inkscape:label="SeriesXS"
   style="fill:#ffffff" />
</svg>
